X:1
T:We Shall Overcome
M:4/4
L:1/4
K:C
 G G A A| G2- E2| G G A A| G2- E2| G G A B| c2 d2| B2- A/2- B- A/2-|\
 G2 A- B| c2 B A| G4| A2 G F| E3 F| G G C F| E2 D2| C4|
